X: 2
T: Captain Byng / Bing
M: 2/4
L: 1/8
R: polka
K: Gmaj
|: g/a/g/f/ g>d | BG GA/B/ | c/B/A a>g | fd ef |
g>f gd | BG G2 | c/B/A dF | G2 G2 :|
|: BG dG | BG GA/B/ | c/B/A eA | cA E/F/G/A/ |
BG d>G | BG GA/B/ | c/B/A dF | G2 G2 :|
